X:1
T:Title
%%score { ( 1 3 ) | ( 2 4 ) }
L:1/8
M:4/4
K:E
V:1 treble nm="Grand Piano"
V:3 treble 
V:2 bass 
V:4 bass 
V:1
 z4 z[Q:1/4=100] BcB | [B,G]4- [B,G]FAD | [A,F]2 [G,E]2- [G,E]EAG | c6[K:bass][K:treble] z2 | %4
 [DB]4- [DB]BcB | [B,G]4- [B,G]FAD | [A,F]2 [G,E]2- [G,E]EDC | [G,B,]2 [^A,E]2 [B,G]3 [=A,F] | %8
[M:11/16] [G,E]/-[G,E]/-[G,E]/-[G,E]/-[G,E]/-[G,E]/-[G,E]/-[G,E]-<[G,E] |[M:3/8] [DF][DF][EG] | %10
[M:4/4] [FA]3 [FA] [EG]2 [FA]2 | [=Gc]2 [^GB]2- [GB][GB][GB]G | F3 B d2 c2 | [DB]4- [DB]B,CD | %14
 E3 D F2 E2 | A2 G2- GEDC | B,2 [^A,CE]2 [B,EG]3 [=A,B,F] |[M:5/8] [G,B,E]-[G,B,E]- [G,B,E]3 |] %18
V:2
 z4 z G,A,G, | E,B,,E,B,, E,,A,F,B, | D,B,,E,B,, E,,G,CB, | A,4- A,G, .F,>E | B,,D,F,B, A,G,A,G, | %5
 E,B,,E,B,, E,,A,F,B, | D,B,,E,B,, E,,CB,A, | E,B,,=G,C, B,,E,E,,[B,,D,] | %8
[M:11/16] E,B,,G,,B,,E,,3/2 |[M:3/8] [B,,B,][B,,B,][B,,B,] | %10
[M:4/4] [B,,B,]3 [B,,B,] [B,,B,]2 [B,,B,]2 | [E,^A,]2 [E,B,]2- [E,B,][E,E][E,E][E,B,E] | %12
 [F,B,D]3 [F,B,D] [F,B,F]2 [F,^A,E]2 | [B,,B,]4- [B,,B,][B,,A,][B,,A,B,][B,,A,B,] | %14
 [E,G,B,]3 [F,B,] [D,A,B,]2 [E,G,B,]2 | [E,CE]2 [E,B,E]2- [E,B,E]CB,A, | G,2 C,2 B,,3 B,, | %17
[M:5/8] E,-E,- E,3 |] %18
V:3
 x8 | x8 | x8 | z[K:bass] E,A,,E, A,,[K:treble]B [C^A]>A | x8 | x8 | x8 | x8 |[M:11/16] x11/2 | %9
[M:3/8] x3 |[M:4/4] x8 | x8 | x8 | x8 | x8 | x8 | x8 |[M:5/8] x5 |] %18
V:4
 x8 | x8 | x8 | .A,,2 z2 z2 z F,, | x8 | x8 | x8 | x8 |[M:11/16] x11/2 |[M:3/8] x3 |[M:4/4] x8 | %11
 x8 | x8 | x8 | x8 | x8 | x8 |[M:5/8] x5 |] %18

